img/logo-mobile.svg

<svg width="85" height="34" viewBox="0 0 85 34" fill="none" xmlns="http://www.w3.org/2000/svg">
<path d="M42.8212 14.1346V15.6147H35.6082V5.00006H42.6879V6.48013H37.267V9.50006H41.9622V10.8904H37.267V14.1346H42.8212Z" fill="white"/>
<path d="M47.0525 15.7642C46.4305 15.7642 45.8084 15.6645 45.1863 15.4652C44.5741 15.2559 44.0458 14.9619 43.6015 14.5831L44.2532 13.5366C44.7173 13.8755 45.1764 14.1346 45.6306 14.314C46.0849 14.4834 46.5489 14.5682 47.0229 14.5682C47.5067 14.5682 47.8869 14.4735 48.1634 14.2841C48.4497 14.0947 48.5929 13.8256 48.5929 13.4768C48.5929 13.1479 48.4349 12.9087 48.1189 12.7592C47.803 12.6097 47.3093 12.4452 46.6378 12.2658C46.154 12.1363 45.7393 12.0117 45.3937 11.8921C45.0481 11.7725 44.7667 11.633 44.5494 11.4735C44.3322 11.314 44.1742 11.1296 44.0755 10.9203C43.9767 10.711 43.9273 10.4569 43.9273 10.1579C43.9273 9.7592 44.0014 9.40538 44.1495 9.09641C44.3075 8.78744 44.5198 8.5283 44.7864 8.319C45.0629 8.09973 45.3838 7.93528 45.7491 7.82564C46.1145 7.71601 46.5094 7.66119 46.934 7.66119C47.5166 7.66119 48.0597 7.75089 48.5633 7.93029C49.0669 8.1097 49.5161 8.36883 49.9111 8.7077L49.215 9.69441C48.4942 9.11634 47.7289 8.8273 46.9192 8.8273C46.5045 8.8273 46.154 8.91701 45.8676 9.09641C45.5911 9.26584 45.4529 9.53993 45.4529 9.91867C45.4529 10.0781 45.4825 10.2127 45.5418 10.3223C45.601 10.432 45.6948 10.5266 45.8232 10.6064C45.9614 10.6861 46.1342 10.7609 46.3416 10.8306C46.5588 10.8904 46.8254 10.9602 47.1414 11.0399C47.6647 11.1695 48.114 11.2991 48.4892 11.4286C48.8743 11.5582 49.1903 11.7127 49.4371 11.8921C49.684 12.0615 49.8667 12.2658 49.9852 12.505C50.1036 12.7343 50.1629 13.0134 50.1629 13.3423C50.1629 14.0898 49.8815 14.6828 49.3186 15.1213C48.7657 15.5499 48.0103 15.7642 47.0525 15.7642Z" fill="white"/>
<path d="M51.0826 11.6977C51.0826 11.1496 51.1764 10.6313 51.364 10.1429C51.5516 9.65455 51.8182 9.22598 52.1638 8.8572C52.5193 8.48843 52.9439 8.1994 53.4376 7.99009C53.9313 7.77083 54.4842 7.66119 55.0964 7.66119C55.8962 7.66119 56.5825 7.84059 57.1552 8.1994C57.7378 8.54823 58.1722 9.01667 58.4586 9.60471L56.8738 10.113C56.6862 9.78411 56.4344 9.52996 56.1184 9.35056C55.8024 9.16119 55.4519 9.06651 55.0668 9.06651C54.741 9.06651 54.4349 9.13129 54.1485 9.26086C53.872 9.39043 53.6301 9.57481 53.4228 9.81402C53.2154 10.0433 53.0525 10.3173 52.934 10.6363C52.8155 10.9552 52.7563 11.309 52.7563 11.6977C52.7563 12.0765 52.8155 12.4303 52.934 12.7592C53.0624 13.0781 53.2302 13.3572 53.4376 13.5964C53.6548 13.8356 53.9017 14.025 54.1781 14.1645C54.4645 14.2941 54.7656 14.3589 55.0816 14.3589C55.2791 14.3589 55.4766 14.334 55.6741 14.2841C55.8716 14.2243 56.0493 14.1446 56.2073 14.0449C56.3751 13.9452 56.5183 13.8306 56.6368 13.7011C56.7652 13.5715 56.859 13.432 56.9182 13.2825L58.5178 13.7609C58.2611 14.3489 57.8316 14.8323 57.2293 15.211C56.6269 15.5798 55.916 15.7642 55.0964 15.7642C54.4941 15.7642 53.9461 15.6545 53.4524 15.4353C52.9587 15.216 52.5341 14.922 52.1786 14.5532C51.833 14.1745 51.5615 13.7409 51.364 13.2526C51.1764 12.7642 51.0826 12.2459 51.0826 11.6977Z" fill="white"/>
<path d="M61.9184 15.7642C61.5432 15.7642 61.1927 15.7044 60.8668 15.5848C60.5508 15.4552 60.2744 15.2808 60.0374 15.0615C59.8103 14.8423 59.6276 14.5831 59.4894 14.2841C59.361 13.9851 59.2968 13.6612 59.2968 13.3124C59.2968 12.9436 59.3758 12.6097 59.5338 12.3107C59.6918 12.0117 59.914 11.7526 60.2003 11.5333C60.4965 11.314 60.8421 11.1446 61.2371 11.025C61.6419 10.9054 62.0863 10.8456 62.5701 10.8456C62.9355 10.8456 63.2959 10.8805 63.6513 10.9502C64.0068 11.01 64.3277 11.0947 64.6141 11.2044V10.6662C64.6141 10.0881 64.4511 9.6396 64.1253 9.32066C63.7994 8.99176 63.3304 8.8273 62.7182 8.8273C62.3035 8.8273 61.8937 8.90704 61.4889 9.06651C61.0939 9.21601 60.6841 9.43528 60.2596 9.72431L59.756 8.6778C60.7533 8.00006 61.79 7.66119 62.8663 7.66119C63.9327 7.66119 64.7622 7.93528 65.3546 8.48345C65.9471 9.03162 66.2433 9.819 66.2433 10.8456V13.6712C66.2433 14.02 66.3865 14.1994 66.6728 14.2094V15.6147C66.5148 15.6446 66.3766 15.6645 66.2581 15.6745C66.1495 15.6844 66.0409 15.6894 65.9323 15.6894C65.6163 15.6894 65.3694 15.6097 65.1917 15.4502C65.0238 15.2908 64.9202 15.0864 64.8807 14.8373L64.8362 14.3439C64.4906 14.8024 64.0611 15.1562 63.5477 15.4054C63.0441 15.6446 62.501 15.7642 61.9184 15.7642ZM62.3628 14.5532C62.7577 14.5532 63.128 14.4835 63.4736 14.3439C63.8291 14.1944 64.1055 13.9901 64.303 13.731C64.5104 13.5516 64.6141 13.3622 64.6141 13.1629V12.1313C64.3376 12.0217 64.0414 11.9369 63.7254 11.8771C63.4193 11.8173 63.1181 11.7874 62.8219 11.7874C62.2393 11.7874 61.7604 11.917 61.3852 12.1761C61.0199 12.4253 60.8372 12.7592 60.8372 13.1778C60.8372 13.5665 60.9804 13.8954 61.2667 14.1645C61.5531 14.4237 61.9184 14.5532 62.3628 14.5532Z" fill="white"/>
<path d="M72.6189 15.7642C71.9968 15.7642 71.4488 15.6147 70.9748 15.3157C70.5009 15.0167 70.1256 14.628 69.8492 14.1496V18.7991H68.2199V7.79574H69.6566V9.20106C69.9528 8.73262 70.333 8.35887 70.7971 8.0798C71.271 7.80073 71.8042 7.66119 72.3967 7.66119C72.9299 7.66119 73.4187 7.77083 73.863 7.99009C74.3074 8.20936 74.6924 8.50338 75.0183 8.87215C75.3441 9.24093 75.5959 9.6695 75.7737 10.1579C75.9613 10.6462 76.0551 11.1595 76.0551 11.6977C76.0551 12.2658 75.9711 12.7991 75.8033 13.2974C75.6354 13.7858 75.3984 14.2143 75.0923 14.5831C74.7862 14.9419 74.4209 15.231 73.9963 15.4502C73.5816 15.6595 73.1224 15.7642 72.6189 15.7642ZM72.0857 14.3589C72.4313 14.3589 72.7423 14.2841 73.0188 14.1346C73.3051 13.9851 73.547 13.7858 73.7445 13.5366C73.9519 13.2874 74.1099 13.0034 74.2185 12.6844C74.3271 12.3655 74.3814 12.0366 74.3814 11.6977C74.3814 11.3389 74.3172 11.0001 74.1889 10.6811C74.0704 10.3622 73.9025 10.0831 73.6853 9.84392C73.4779 9.60471 73.2261 9.41534 72.9299 9.27581C72.6337 9.13627 72.3128 9.06651 71.9672 9.06651C71.7598 9.06651 71.5426 9.10637 71.3155 9.18611C71.0884 9.26584 70.8761 9.37548 70.6786 9.51501C70.4811 9.65455 70.3083 9.819 70.1602 10.0084C70.0121 10.1878 69.9084 10.3871 69.8492 10.6064V12.6545C69.9479 12.8937 70.0763 13.118 70.2342 13.3273C70.3922 13.5366 70.565 13.716 70.7526 13.8655C70.9501 14.015 71.1624 14.1346 71.3895 14.2243C71.6166 14.314 71.8487 14.3589 72.0857 14.3589Z" fill="white"/>
<path d="M81.0306 15.7642C80.4283 15.7642 79.8803 15.6595 79.3866 15.4502C78.8929 15.231 78.4683 14.9369 78.1128 14.5682C77.7672 14.1994 77.4957 13.7708 77.2982 13.2825C77.1106 12.7941 77.0168 12.2758 77.0168 11.7276C77.0168 11.1795 77.1106 10.6612 77.2982 10.1728C77.4957 9.67448 77.7672 9.24093 78.1128 8.87215C78.4683 8.49342 78.8929 8.1994 79.3866 7.99009C79.8803 7.77083 80.4332 7.66119 81.0454 7.66119C81.6478 7.66119 82.1908 7.77083 82.6747 7.99009C83.1684 8.20936 83.588 8.50338 83.9336 8.87215C84.2792 9.23096 84.5409 9.65455 84.7186 10.1429C84.9062 10.6213 85 11.1246 85 11.6529C85 11.7725 84.9951 11.8871 84.9852 11.9967C84.9754 12.0964 84.9655 12.1811 84.9556 12.2509H78.7497C78.7793 12.5997 78.8583 12.9137 78.9867 13.1928C79.1249 13.4718 79.2977 13.716 79.5051 13.9253C79.7223 14.1246 79.9642 14.2791 80.2308 14.3888C80.5073 14.4984 80.7936 14.5532 81.0899 14.5532C81.3071 14.5532 81.5194 14.5283 81.7268 14.4785C81.944 14.4187 82.1415 14.3389 82.3192 14.2393C82.4969 14.1296 82.6549 14.0001 82.7932 13.8506C82.9314 13.7011 83.04 13.5366 83.119 13.3572L84.5113 13.7609C84.2447 14.3489 83.8003 14.8323 83.1783 15.211C82.5661 15.5798 81.8502 15.7642 81.0306 15.7642ZM83.3856 11.1147C83.356 10.7858 83.2721 10.4818 83.1338 10.2027C83.0055 9.92365 82.8376 9.68943 82.6302 9.50006C82.4229 9.30073 82.181 9.14624 81.9045 9.03661C81.628 8.92697 81.3367 8.87215 81.0306 8.87215C80.7245 8.87215 80.4332 8.92697 80.1568 9.03661C79.8902 9.14624 79.6532 9.30073 79.4458 9.50006C79.2385 9.68943 79.0706 9.92365 78.9422 10.2027C78.8139 10.4818 78.7349 10.7858 78.7053 11.1147H83.3856Z" fill="white"/>
<path d="M35.6082 30.5648V19.9502H40.1848C40.6588 19.9502 41.0933 20.0499 41.4882 20.2492C41.8931 20.4486 42.2387 20.7127 42.525 21.0416C42.8114 21.3605 43.0335 21.7293 43.1915 22.1479C43.3594 22.5565 43.4433 22.9751 43.4433 23.4037C43.4433 23.7625 43.3939 24.1064 43.2952 24.4353C43.1965 24.7642 43.0582 25.0682 42.8805 25.3472C42.7028 25.6263 42.4855 25.8705 42.2288 26.0798C41.9721 26.2791 41.6907 26.4286 41.3846 26.5283L43.858 30.5648H41.977L39.6961 26.8722H37.267V30.5648H35.6082ZM37.267 25.3921H40.17C40.407 25.3921 40.6193 25.3423 40.8069 25.2426C41.0044 25.133 41.1723 24.9884 41.3105 24.809C41.4487 24.6197 41.5573 24.4054 41.6363 24.1662C41.7153 23.927 41.7548 23.6728 41.7548 23.4037C41.7548 23.1346 41.7055 22.8805 41.6067 22.6413C41.5179 22.4021 41.3944 22.1928 41.2364 22.0134C41.0883 21.8339 40.9106 21.6944 40.7032 21.5947C40.5057 21.4851 40.2984 21.4303 40.0812 21.4303H37.267V25.3921Z" fill="white"/>
<path d="M48.4567 30.7143C47.8445 30.7143 47.2915 30.6047 46.7978 30.3854C46.314 30.1662 45.8993 29.8722 45.5537 29.5034C45.2081 29.1346 44.9415 28.706 44.7539 28.2177C44.5663 27.7193 44.4725 27.2011 44.4725 26.6629C44.4725 26.1246 44.5663 25.6114 44.7539 25.123C44.9415 24.6246 45.2081 24.1911 45.5537 23.8223C45.9092 23.4536 46.3288 23.1595 46.8127 22.9403C47.3064 22.721 47.8544 22.6114 48.4567 22.6114C49.059 22.6114 49.6021 22.721 50.0859 22.9403C50.5797 23.1595 50.9993 23.4536 51.3449 23.8223C51.7004 24.1911 51.9719 24.6246 52.1595 25.123C52.3471 25.6114 52.4409 26.1246 52.4409 26.6629C52.4409 27.2011 52.3471 27.7193 52.1595 28.2177C51.9719 28.706 51.7004 29.1346 51.3449 29.5034C50.9993 29.8722 50.5797 30.1662 50.0859 30.3854C49.6021 30.6047 49.059 30.7143 48.4567 30.7143ZM46.1461 26.6778C46.1461 27.0565 46.2054 27.4054 46.3239 27.7243C46.4424 28.0433 46.6053 28.3223 46.8127 28.5615C47.02 28.7908 47.2619 28.9751 47.5384 29.1147C47.8248 29.2443 48.1309 29.309 48.4567 29.309C48.7826 29.309 49.0837 29.2443 49.3602 29.1147C49.6465 28.9751 49.8934 28.7858 50.1008 28.5466C50.3081 28.3074 50.471 28.0283 50.5895 27.7094C50.708 27.3904 50.7673 27.0416 50.7673 26.6629C50.7673 26.2941 50.708 25.9502 50.5895 25.6313C50.471 25.3024 50.3081 25.0183 50.1008 24.7791C49.8934 24.5399 49.6465 24.3555 49.3602 24.226C49.0837 24.0864 48.7826 24.0167 48.4567 24.0167C48.1407 24.0167 47.8396 24.0864 47.5532 24.226C47.2767 24.3655 47.0348 24.5549 46.8275 24.7941C46.6201 25.0333 46.4522 25.3173 46.3239 25.6462C46.2054 25.9652 46.1461 26.309 46.1461 26.6778Z" fill="white"/>
<path d="M57.3666 30.7143C56.7544 30.7143 56.2015 30.6047 55.7077 30.3854C55.2239 30.1662 54.8092 29.8722 54.4636 29.5034C54.118 29.1346 53.8514 28.706 53.6638 28.2177C53.4762 27.7193 53.3824 27.2011 53.3824 26.6629C53.3824 26.1246 53.4762 25.6114 53.6638 25.123C53.8514 24.6246 54.118 24.1911 54.4636 23.8223C54.8191 23.4536 55.2387 23.1595 55.7226 22.9403C56.2163 22.721 56.7643 22.6114 57.3666 22.6114C57.9689 22.6114 58.512 22.721 58.9958 22.9403C59.4896 23.1595 59.9092 23.4536 60.2548 23.8223C60.6103 24.1911 60.8818 24.6246 61.0694 25.123C61.257 25.6114 61.3508 26.1246 61.3508 26.6629C61.3508 27.2011 61.257 27.7193 61.0694 28.2177C60.8818 28.706 60.6103 29.1346 60.2548 29.5034C59.9092 29.8722 59.4896 30.1662 58.9958 30.3854C58.512 30.6047 57.9689 30.7143 57.3666 30.7143ZM55.056 26.6778C55.056 27.0565 55.1153 27.4054 55.2338 27.7243C55.3523 28.0433 55.5152 28.3223 55.7226 28.5615C55.9299 28.7908 56.1718 28.9751 56.4483 29.1147C56.7347 29.2443 57.0408 29.309 57.3666 29.309C57.6925 29.309 57.9936 29.2443 58.2701 29.1147C58.5564 28.9751 58.8033 28.7858 59.0107 28.5466C59.218 28.3074 59.3809 28.0283 59.4994 27.7094C59.6179 27.3904 59.6772 27.0416 59.6772 26.6629C59.6772 26.2941 59.6179 25.9502 59.4994 25.6313C59.3809 25.3024 59.218 25.0183 59.0107 24.7791C58.8033 24.5399 58.5564 24.3555 58.2701 24.226C57.9936 24.0864 57.6925 24.0167 57.3666 24.0167C57.0506 24.0167 56.7495 24.0864 56.4631 24.226C56.1866 24.3655 55.9447 24.5549 55.7374 24.7941C55.53 25.0333 55.3622 25.3173 55.2338 25.6462C55.1153 25.9652 55.056 26.309 55.056 26.6778Z" fill="white"/>
<path d="M74.6449 30.5648H73.0156V26.1845C73.0156 25.4569 72.8972 24.9236 72.6602 24.5848C72.4232 24.2459 72.0776 24.0765 71.6234 24.0765C71.1593 24.0765 70.7347 24.2509 70.3496 24.5997C69.9744 24.9386 69.7029 25.3821 69.535 25.9303V30.5648H67.9058V26.1845C67.9058 25.4469 67.7873 24.9137 67.5503 24.5848C67.3133 24.2459 66.9726 24.0765 66.5283 24.0765C66.0642 24.0765 65.6396 24.2459 65.2545 24.5848C64.8694 24.9236 64.593 25.3672 64.4251 25.9153V30.5648H62.7959V22.7459H64.277V24.3157C64.5831 23.7675 64.983 23.3489 65.4767 23.0599C65.9803 22.7609 66.553 22.6114 67.1948 22.6114C67.8366 22.6114 68.3402 22.7808 68.7056 23.1197C69.0808 23.4585 69.3128 23.8821 69.4017 24.3904C69.7275 23.8124 70.1373 23.3738 70.631 23.0748C71.1247 22.7658 71.6876 22.6114 72.3195 22.6114C72.7737 22.6114 73.1489 22.7011 73.4452 22.8805C73.7513 23.0499 73.9932 23.2791 74.1709 23.5682C74.3487 23.8572 74.4721 24.1961 74.5412 24.5848C74.6103 24.9635 74.6449 25.3672 74.6449 25.7957V30.5648Z" fill="white"/>
<rect x="29.2097" y="14.1429" width="13.6851" height="1.46429" fill="white"/>
<rect x="29.2144" y="19.9197" width="10.1628" height="1.45982" fill="white"/>
<path fill-rule="evenodd" clip-rule="evenodd" d="M18.3359 27.56L7.79515 22.0507L7.97763 21.7055L18.5183 27.2148L18.3359 27.56Z" fill="white"/>
<path fill-rule="evenodd" clip-rule="evenodd" d="M24.6014 22.1617V10.6981H24.9936V22.1617H24.6014Z" fill="white"/>
<path fill-rule="evenodd" clip-rule="evenodd" d="M24.4053 15.0357L18.4782 18.5354L18.309 18.1762L24.205 14.7003L24.4053 15.0357Z" fill="white"/>
<path fill-rule="evenodd" clip-rule="evenodd" d="M23.8115 10.3201L17.9877 6.97186L10.6728 11.2572L16.3696 14.5533L23.8115 10.3201ZM17.9858 6.52026L9.89647 11.2592L16.368 15.0036L24.6014 10.3201L24.2612 10.1281L17.9858 6.52026Z" fill="white"/>
<path d="M7.85737 22.0731L7.69028 21.9756L7.59223 14.5161L2.68958 11.6395M7.85737 22.0731L14.3263 18.363M7.85737 22.0731L14.3263 25.464M14.652 18.1762V25.5834L14.3263 25.464M14.652 18.1762L2.68958 11.2592V9.29929L2.98373 9.10427L16.417 1.44974L29.6414 9.39683V14.125H30.0677L30.0833 9.13482L16.4174 1L2.77722 8.77242L2.29736 9.09055V25.1812L16.7117 33L18.182 32.1982V32.2058L18.4703 32.0409L18.6232 31.9575V31.9535L30.0329 25.2244L30.0494 20.4286H29.6414V24.9984L18.5742 31.5316V27.5824L26.6631 23.0504L18.3089 18.1762M14.652 18.1762L14.3263 18.363M18.3089 18.1762L18.231 18.2215V31.7266L16.7112 32.5554L2.68958 24.9497V11.6395M18.3089 18.1762L18.4782 18.5354L24.4053 15.0357L24.205 14.7003L18.3089 18.1762ZM2.68958 11.6395V11.4933M14.3263 18.363V25.464M24.2612 10.1281L17.9858 6.52026L9.89647 11.2592L16.368 15.0036L24.6014 10.3201L24.2612 10.1281ZM13.8694 18.1748L8.07624 21.4973L7.98786 14.774L13.8694 18.1748ZM25.8978 23.0613L18.6232 27.0942V18.807L25.8978 23.0613ZM17.9877 6.97186L23.8115 10.3201L16.3696 14.5533L10.6728 11.2572L17.9877 6.97186ZM7.79515 22.0507L18.3359 27.56L18.5183 27.2148L7.97763 21.7055L7.79515 22.0507ZM24.6014 10.6981V22.1617H24.9936V10.6981H24.6014Z" stroke="white" stroke-width="1.17537"/>
</svg>

<svg width="85" height="34" fill="none" xmlns="http://www.w3.org/2000/svg"><path d="M42.821 14.135v1.48h-7.213V5h7.08v1.48h-5.421V9.5h4.695v1.39h-4.695v3.245h5.554zm4.232 1.629a6.1 6.1 0 01-1.867-.299 4.812 4.812 0 01-1.584-.882l.651-1.046c.464.338.923.598 1.378.777.454.17.918.254 1.392.254.484 0 .864-.095 1.14-.284a.912.912 0 00.43-.807c0-.33-.158-.568-.474-.718-.316-.15-.81-.314-1.481-.493-.484-.13-.899-.254-1.244-.374a3.19 3.19 0 01-.845-.418 1.466 1.466 0 01-.474-.554 1.776 1.776 0 01-.148-.762c0-.399.074-.753.223-1.062.157-.309.37-.568.636-.777a2.85 2.85 0 01.963-.493 4.09 4.09 0 011.185-.165c.583 0 1.126.09 1.63.27.503.179.952.438 1.347.777l-.696.986c-.72-.578-1.486-.867-2.296-.867-.414 0-.765.09-1.051.27-.277.169-.415.443-.415.822 0 .16.03.294.089.403a.77.77 0 00.281.284c.138.08.311.155.519.225.217.06.483.13.8.209.523.13.972.26 1.347.389.385.13.701.284.948.463.247.17.43.374.548.613.119.23.178.508.178.837 0 .748-.281 1.34-.844 1.78-.553.428-1.309.642-2.267.642zm4.03-4.066c0-.548.093-1.067.281-1.555a3.91 3.91 0 01.8-1.286 3.8 3.8 0 011.274-.867 4.044 4.044 0 011.658-.329c.8 0 1.487.18 2.06.538a3.295 3.295 0 011.303 1.406l-1.585.508a1.991 1.991 0 00-.756-.762 2.007 2.007 0 00-1.051-.284 2.2 2.2 0 00-.919.194 2.18 2.18 0 00-.725.553c-.208.23-.37.503-.489.822a3.027 3.027 0 00-.178 1.062c0 .378.06.732.178 1.061.128.32.296.598.504.837.217.24.464.429.74.569.287.13.588.194.904.194.197 0 .395-.025.592-.075.198-.06.375-.14.533-.24a1.85 1.85 0 00.43-.343c.128-.13.222-.269.281-.418l1.6.478c-.257.588-.686 1.071-1.289 1.45-.602.369-1.313.553-2.133.553-.602 0-1.15-.11-1.644-.329a4.007 4.007 0 01-1.273-.882 4.308 4.308 0 01-.815-1.3 4.299 4.299 0 01-.281-1.555zm10.835 4.066c-.375 0-.725-.06-1.051-.18a2.738 2.738 0 01-.83-.522 2.564 2.564 0 01-.548-.778 2.436 2.436 0 01-.192-.972c0-.368.079-.702.237-1.001.158-.3.38-.558.666-.778a3.378 3.378 0 011.037-.508c.405-.12.85-.18 1.333-.18.365 0 .726.035 1.081.105.356.06.677.145.963.254v-.538c0-.578-.163-1.026-.489-1.345-.326-.33-.795-.494-1.407-.494-.415 0-.824.08-1.23.24a5.922 5.922 0 00-1.228.657l-.504-1.046C60.753 8 61.79 7.66 62.866 7.66c1.067 0 1.896.274 2.489.822.592.549.888 1.336.888 2.363v2.825c0 .349.144.528.43.538v1.406a4.142 4.142 0 01-.74.074c-.317 0-.564-.08-.741-.239a1.044 1.044 0 01-.311-.613l-.045-.493a3.514 3.514 0 01-1.288 1.061 3.749 3.749 0 01-1.63.36zm.445-1.21c.395 0 .765-.07 1.11-.21.356-.15.633-.354.83-.613.207-.18.311-.369.311-.568V12.13a4.857 4.857 0 00-.889-.254 4.705 4.705 0 00-.903-.09c-.583 0-1.062.13-1.437.39-.365.248-.548.582-.548 1 0 .39.143.718.43.988.286.259.651.388 1.096.388zm10.256 1.21c-.622 0-1.17-.15-1.644-.448a3.333 3.333 0 01-1.126-1.166v4.65h-1.63V7.795h1.438V9.2a3.42 3.42 0 011.14-1.121 3.093 3.093 0 011.6-.419c.533 0 1.022.11 1.466.33.444.218.83.512 1.155.881.326.369.578.797.756 1.286a4.27 4.27 0 01.281 1.54 4.98 4.98 0 01-.252 1.6 4.056 4.056 0 01-.71 1.285 3.592 3.592 0 01-1.097.867c-.414.21-.874.314-1.377.314zm-.533-1.405c.345 0 .656-.075.933-.224.286-.15.528-.35.725-.598.208-.25.366-.534.475-.853a3.04 3.04 0 00.162-.986c0-.36-.064-.698-.192-1.017a2.555 2.555 0 00-.504-.837 2.263 2.263 0 00-1.718-.777c-.207 0-.424.04-.651.12a2.514 2.514 0 00-1.156.821c-.148.18-.252.38-.31.598v2.049c.098.239.226.463.384.672.158.21.331.389.519.539.197.149.41.269.636.358.228.09.46.135.697.135zm8.944 1.405c-.602 0-1.15-.104-1.643-.314a4.006 4.006 0 01-1.274-.882 4.12 4.12 0 01-.815-1.285 4.299 4.299 0 01-.281-1.555c0-.548.094-1.067.281-1.555.198-.499.47-.932.815-1.3.355-.38.78-.674 1.274-.883a4.044 4.044 0 011.658-.329c.603 0 1.146.11 1.63.33.493.218.913.512 1.259.881.345.359.607.783.785 1.27a4.099 4.099 0 01.237 2.109H78.75a2.8 2.8 0 00.237.942c.138.279.31.523.518.732.217.2.46.354.726.464.276.11.563.164.859.164.217 0 .43-.025.637-.075.217-.06.414-.14.592-.239.178-.11.336-.239.474-.388.138-.15.247-.314.326-.494l1.392.404c-.266.588-.71 1.071-1.333 1.45-.612.369-1.328.553-2.147.553zm2.356-4.65a2.55 2.55 0 00-.252-.911 2.158 2.158 0 00-.504-.703 2.188 2.188 0 00-.725-.463 2.35 2.35 0 00-.874-.165c-.306 0-.598.055-.874.165-.267.11-.504.264-.711.463-.207.19-.375.424-.504.703a2.774 2.774 0 00-.237.912h4.68zM35.608 30.565V19.95h4.577c.474 0 .908.1 1.303.3.405.199.75.463 1.037.792.286.318.508.687.666 1.106.168.409.252.827.252 1.256a3.63 3.63 0 01-.563 1.944 3.06 3.06 0 01-.651.732c-.257.2-.538.349-.844.448l2.473 4.037h-1.881l-2.28-3.693h-2.43v3.693h-1.659zm1.659-5.173h2.903c.237 0 .45-.05.637-.15.197-.109.365-.254.503-.433a2.31 2.31 0 00.326-.643c.08-.239.119-.493.119-.762 0-.27-.05-.523-.148-.763a1.985 1.985 0 00-.37-.628 1.56 1.56 0 00-.534-.418 1.264 1.264 0 00-.622-.165h-2.814v3.962zm11.19 5.322c-.613 0-1.166-.11-1.66-.329a3.876 3.876 0 01-1.243-.882 3.91 3.91 0 01-.8-1.285 4.377 4.377 0 01-.282-1.555c0-.538.094-1.052.282-1.54.188-.498.454-.932.8-1.3a4.053 4.053 0 011.259-.883 4.006 4.006 0 011.644-.329c.602 0 1.145.11 1.629.33.494.219.913.513 1.259.881.355.37.627.803.815 1.301.187.488.28 1.002.28 1.54s-.093 1.056-.28 1.555a3.79 3.79 0 01-.815 1.285 3.833 3.833 0 01-1.26.882 3.903 3.903 0 01-1.628.33zm-2.31-4.036c0 .378.058.727.177 1.046.118.32.281.598.489.837.207.23.449.414.725.554a2.2 2.2 0 00.919.194c.326 0 .627-.065.903-.194a2.31 2.31 0 00.74-.568c.208-.24.371-.519.49-.838a2.99 2.99 0 00.177-1.046 2.93 2.93 0 00-.178-1.032 2.665 2.665 0 00-.488-.852 2.133 2.133 0 00-.74-.553 1.976 1.976 0 00-.904-.21c-.316 0-.617.07-.904.21a2.36 2.36 0 00-.725.568 2.89 2.89 0 00-.504.852 2.939 2.939 0 00-.178 1.032zm11.22 4.036c-.613 0-1.165-.11-1.66-.329a3.876 3.876 0 01-1.243-.882 3.91 3.91 0 01-.8-1.285 4.377 4.377 0 01-.282-1.555c0-.538.094-1.052.282-1.54.187-.498.454-.932.8-1.3a4.053 4.053 0 011.259-.883 4.006 4.006 0 011.644-.329c.602 0 1.145.11 1.629.33a3.841 3.841 0 012.073 2.182c.188.488.282 1.002.282 1.54s-.094 1.056-.282 1.555a3.79 3.79 0 01-.814 1.285 3.833 3.833 0 01-1.26.882 3.903 3.903 0 01-1.628.33zm-2.311-4.036c0 .378.06.727.178 1.046.118.32.281.598.489.837.207.23.449.414.725.554a2.2 2.2 0 00.919.194c.326 0 .627-.065.903-.194a2.31 2.31 0 00.74-.568c.208-.24.37-.519.49-.838a2.99 2.99 0 00.177-1.046c0-.369-.06-.713-.178-1.032a2.665 2.665 0 00-.488-.852 2.133 2.133 0 00-.74-.553 1.976 1.976 0 00-.904-.21c-.316 0-.617.07-.904.21a2.36 2.36 0 00-.726.568 2.9 2.9 0 00-.503.852 2.939 2.939 0 00-.178 1.032zm19.589 3.887h-1.63v-4.38c0-.728-.118-1.261-.355-1.6-.237-.34-.582-.509-1.037-.509-.464 0-.888.175-1.273.524-.376.339-.647.782-.815 1.33v4.635h-1.63v-4.38c0-.738-.118-1.271-.355-1.6-.237-.34-.577-.509-1.022-.509-.464 0-.888.17-1.274.509-.385.339-.661.782-.829 1.33v4.65h-1.63v-7.82h1.482v1.57c.306-.548.706-.966 1.2-1.255.503-.3 1.076-.449 1.718-.449.642 0 1.145.17 1.51.509.376.338.608.762.697 1.27.326-.578.735-1.016 1.229-1.315.494-.31 1.057-.464 1.689-.464.454 0 .829.09 1.125.27.306.169.548.398.726.687.178.29.301.628.37 1.017.07.378.104.782.104 1.21v4.77z" fill="#fff"/><path fill="#fff" d="M29.21 14.143h13.685v1.464H29.21zm.004 5.777h10.163v1.46H29.214z"/><path fill-rule="evenodd" clip-rule="evenodd" d="M18.336 27.56l-10.54-5.51.182-.345 10.54 5.51-.182.345zm6.265-5.398V10.698h.393v11.464H24.6zm-.196-7.126l-5.927 3.5-.169-.36 5.896-3.476.2.336zm-.594-4.716l-5.823-3.348-7.315 4.285 5.697 3.296 7.441-4.233zm-5.825-3.8l-8.09 4.74 6.472 3.744 8.233-4.684-.34-.192-6.275-3.608z" fill="#fff"/><path d="M7.857 22.073l-.167-.097-.098-7.46L2.69 11.64m5.167 10.434l6.47-3.71m-6.47 3.71l6.47 3.391m.325-7.288v7.407l-.326-.119m.326-7.288L2.69 11.26V9.3l.294-.195L16.417 1.45l13.224 7.947v4.728h.427l.015-4.99L16.417 1 2.777 8.772l-.48.319v16.09L16.712 33l1.47-.802v.008l.288-.165.153-.083v-.005l11.41-6.729.016-4.795h-.408v4.57l-11.067 6.533v-3.95l8.09-4.532-8.355-4.874m-3.657 0l-.326.187m3.983-.187l-.078.046v13.505l-1.52.828L2.69 24.95V11.64m15.619 6.536l.17.36 5.926-3.5-.2-.336-5.896 3.476zM2.689 11.64v-.147m11.637 6.87v7.101m9.935-15.336L17.986 6.52l-8.09 4.74 6.472 3.744 8.233-4.684-.34-.192zM13.87 18.175l-5.793 3.322-.088-6.723 5.881 3.4zm12.029 4.886l-7.275 4.033v-8.287l7.275 4.254zm-7.91-16.09l5.823 3.35-7.441 4.232-5.697-3.296 7.315-4.285zM7.795 22.052l10.54 5.509.183-.345-10.54-5.51-.183.346zm16.806-11.353v11.464h.393V10.698H24.6z" stroke="#fff" stroke-width="1.175"/></svg>
